X:680
%%etbk:tnset id:419,pos:1,rep:3x,ant:
%%etbk:wsite https://thesession.org/tunes/10390
%%etbk:video src:ytube,cde:EkZ9yQZGNPA,desc:
%%etbk:color #c7dad4
%%etbk:pldat 2016-09-09T19:16,2016-08-06T12:57,2016-08-02T16:44,2016-07-19T21:33,2016-07-15T17:28,2016-06-16T19:42,2016-06-01T18:20,2016-05-24T17:45,2016-05-14T18:00,2016-05-12T19:01,2016-05-11T18:13,2016-05-10T19:49,2016-04-23T16:09,2016-04-21T19:22,2016-04-20T10:50,2016-04-18T18:42,2016-04-12T17:48,2016-01-13T17:50,2015-12-15T15:58,2015-05-10T15:00,2015-05-06T17:44,2015-04-26T21:01,2015-04-25T17:10,2015-04-12T12:31,2015-04-09T19:42
T: Twenty-One Highland
Z: Piano Box Version by Martin Fleischmann
H: Created 2015-04-09 /  Last Modified 2016-09-09
R: highland fling
M: 4/4
L: 1/8
K: Ador
|: !3!C<EA,>B, C>A, B,>C | B,<D !1!G,>!1!A, !2!(3B,CD C>B,  | C<EA,>B, C>A, B,>C | B,<D G,>B, !1!A,>!2!G, !1!A,>B, :|
!1!c2 !2!e>c !5!a>ce>!1!c |!2!c2 !4!e>c !4!(3e!5!ge !3!(3d!2!B!1!G | !2!!1!c2!2!e>!1!c !5!a>ce>c | !2!(3ege !1!(3d!3!cB !1!A>^GA>B |
 c2e>c a>ce>c |c2 e>c (3ege (3dB!1!G | !1!A<aa>g !2!(3efg !3!(3fga | !4!ga!4!g !3!(3fed !3!(3c!2!BA !4!(3G!2!ED ||


